X: 2885
T: Barnacle, The
R: mazurka
M: 3/4
K: Dmajor
|:dB|A2 AF AB|d2 d2 df|e2 ed ef|a2 af dB|
A/B/A AF AB|d2 d2 df|e/f/e ed ef|d2 d2:|
|:de|f2 fe de|f2 fe df|e2 ec Ac|e2 e2 de|
f2 fe de|f2 f2 df|a2 af ef|d2 d2:|
|:de|f2 f2 e/f/e|d2 d2 dc|B2 BA FA|B2 BA FA|
f2 f2 e/f/e|d2 d2 af|e2 ed ef|d2 d2:|

